X:1
T:Title
%%score { ( 1 3 ) | ( 2 4 ) }
L:1/8
M:6/8
K:C
V:1 treble nm="Grand Piano"
V:3 treble 
V:2 bass 
V:4 bass 
V:1
 z3 z2[Q:1/4=100] [EG] | [Ec][GB][FA] [EG][_EB][EA] | [G,E]2 [^F,C_E][K:treble] .[G,C=E]3 | %3
 [B,EG]2 [B,DF] .[B,FA]3 |[M:5/8] [FA]2 [EG] [Ec]2 |[M:1/8] [EG] | %6
[M:3/4] [Ec][GB] [FA][EG] [_EB][EA] | E2 _E .=E3 | D3 A3 | [B,G]6 | [Fd]3 ^c3 | dG AB cd | %12
 [Ge]3 [^F_e]3 | [Ge][EG] [EA][EB] [Ed][Ec] | A2 Bd cA | [EG][CE] [FA] [EG]2 [EA] | z2 z A3 | %17
 [B,DG]6 | [Fd]3 ^c3 | dG AB cd | [Ge]3 [^F_e]3 | eG AB cd | e4 z2 | [Ae][Gd] [FA] .[Ad]3 | %24
 [Fd]4 z2 | [Gd][Gc] [FA] .[EG]3 | A2 Bd cA | [EG][Gc] d .e3 | d3 B3 |[M:5/8] [Ec]-[Ec]- [Ec]3 |] %30
V:2
 z3 z2 [C,G,] | [C,G,][C,A,][C,B,] [C,C][C,^F,][C,F,] | C,2 C, .C,3 | G,,2 G,, .G,,3 | %4
[M:5/8] [C,C]2 [C,C] [C,G,]2 |[M:1/8] [C,G,] |[M:3/4] [C,G,][C,A,] [C,B,][C,C] [C,^F,][C,F,] | %7
 [C,G,]2 [C,^F,C] .[C,G,C]3 | [D,G,B,]3 [D,^F,C]3 | [G,,G,]6 | z2 z E3 | %11
 [G,B,F][G,B,F] [G,CF][G,DF] [G,CE][G,B,G] | [C,C]C, C,[C,C] C,C, | %13
 [C,C][C,C] [C,C][C,G,] [C,G,][C,C] | [F,CF]2 [F,B,F][F,A,F] [F,A,F][F,CF] | %15
 [C,C][C,G,] [C,C] [C,C]2 [C,G,] | [D,G,D]3 .[D,^F,D]3 | G,,6 | z2 z E3 | %19
 [G,B,F][G,B,F] [G,CF][G,DF] [G,CE][G,B,G] | [C,C]C, C,[C,C] C,C, | [CG][CE] [CE][CE] [CE][CE] | %22
 G4 z2[K:bass] | [F,D][F,D] [F,D] .[F,D]3 | [G,B,]G, G, [G,B,G]2 [F,B,] | %25
 [E,C][E,C] [F,C] .[C,C]3 | [F,CF]2 [F,B,F][F,A,F] [F,A,F][F,CF] | %27
 [C,C][E,C][K:treble] [G,B,G] .[CG]3 | [F,A,F]3 [G,F]3 |[M:5/8][K:bass] [C,G,]-[C,G,]- [C,G,]3 |] %30
V:3
 x6 | x6 | x3[K:treble] x3 | x6 |[M:5/8] x5 |[M:1/8] x |[M:3/4] x6 | x6 | x6 | x6 | %10
 z B, .B,2 _B,B, | x6 | z C .C2 CC | x6 | x6 | x6 | B4 z C | x6 | z B, .B,2 _B,B, | x6 | %20
 z C .C2 CC | x6 | z ^C C f2 [Ae] | x6 | z B, B, e2 [Gd] | x6 | x6 | x6 | x6 |[M:5/8] x5 |] %30
V:4
 x6 | x6 | x6 | x6 |[M:5/8] x5 |[M:1/8] x |[M:3/4] x6 | x6 | x6 | x6 | [G,B,]G, G,[G,_B,] G,G, | %11
 x6 | x6 | x6 | x6 | x6 | x6 | x6 | [G,B,]G, G,[G,_B,] G,G, | x6 | x6 | x6 | %22
 [A,^C]A, A, [A,CA]2[K:bass] [G,C] | x6 | x6 | x6 | x6 | x2[K:treble] x4 | x6 | %29
[M:5/8][K:bass] x5 |] %30

